X:243
T:
R:polska
S:Efter klockaren Veström i Vallstena.
O:Gotland, Vallstena
M:3/4
L:1/16
K:D
D4    DEFG A2F2|F2D2 D2G2 B2E2|F2G2 A2B2 c2d2|efgf edcB AGFE|
E2D2  DEFG A2F2|F2D2 D2G2 B2E2|F2G2 A2B2 c2d2|egec c2d2 d4::
A2A2  ABcd e2c2|c2A2 A2d2 f2d2|cAce eagf egfe|dcdf ecdB AFGE|
A,2D2 DEFG A2F2|F2D2 D2G2 B2E2|F2G2 A2B2 c2d2|efec c2d2 d4:|

